X: 1
T: Paddy In Preston
M: 4/4
L: 1/8
R: reel
K: Dmaj
DFAD BAFB|ABdf efab|afef dBAd|BFAF EDB,E|
DFAD BAFB|ABdf efab|afef dBgB|1AFEA FDDA:|2AFEA FDD2||
afea faba|fedB AFEA|FEDB, ~A,3B,|DEFA GABc|
defa bdad|gdfd edBd|Afef dBgB|AFEA FDD2:|
